img/why3.svg

<svg width="56" height="56" viewBox="0 0 56 56" fill="none" xmlns="http://www.w3.org/2000/svg">
    <path d="M42.2788 22.3425C41.0174 22.3425 40.0293 23.3306 40.0293 24.592C40.0293 25.8325 41.0384 26.8416 42.2788 26.8416C43.4882 26.8416 44.5097 25.8115 44.5097 24.592C44.5097 23.3727 43.4882 22.3425 42.2788 22.3425ZM42.2788 25.201C41.9028 25.201 41.67 24.885 41.67 24.5923C41.67 24.2451 41.9318 23.9835 42.2788 23.9835C42.5933 23.9835 42.869 24.2681 42.869 24.5923C42.8691 24.9051 42.5822 25.201 42.2788 25.201Z" fill="white"/>
    <path d="M42.2585 13.1631C41.0405 13.1631 40.0082 13.8846 40.0595 15.0404C40.1385 16.827 40.2759 18.865 40.2759 20.3791C40.2759 21.1902 40.8888 22.0087 42.2585 22.0087C43.21 22.0087 44.2214 21.4375 44.2214 20.3791C44.2214 18.8664 44.3582 16.8352 44.4378 15.0413C44.4896 13.884 43.4367 13.1631 42.2585 13.1631ZM42.7986 14.9685C42.7204 16.7276 42.5855 18.7406 42.5807 20.2963C42.5146 20.3297 42.3906 20.3681 42.2584 20.3681C42.0877 20.3681 41.9758 20.342 41.9164 20.3203C41.9131 18.7686 41.7783 16.7601 41.6983 14.9677C41.6982 14.9613 41.6992 14.9577 41.6991 14.9575C41.7785 14.8832 41.9671 14.8039 42.2584 14.8039C42.5373 14.8039 42.7209 14.8874 42.7986 14.9625C42.7986 14.9643 42.7987 14.9661 42.7986 14.9685Z" fill="white"/>
    <path d="M55.8248 27.6523L43.2651 7.26883C42.8081 6.52672 41.7297 6.52782 41.2735 7.26872L34.2912 18.6006H23.459C23.0058 18.6006 22.6387 18.9678 22.6387 19.4209C22.6387 19.8741 23.0058 20.2413 23.459 20.2413H33.2802L28.7139 27.6521C28.3374 28.2625 28.596 29.0609 29.249 29.3408C29.2042 29.3741 21.7965 34.8833 21.7965 34.8833C21.6487 34.9933 21.4417 34.9939 21.293 34.8832C20.6632 34.4148 3.20939 21.4343 1.77964 20.371C1.86069 20.2953 1.98264 20.2411 2.1082 20.2411H19.6306C20.0838 20.2411 20.4509 19.874 20.4509 19.4208C20.4509 18.9677 20.0838 18.6005 19.6306 18.6005H2.1082C0.956594 18.6005 0.0109375 19.5232 0.000328125 20.6477L0 20.6801V46.9099C0 48.2208 1.06641 49.2872 2.37727 49.2872H40.7097C40.7106 49.2872 40.7113 49.2873 40.7121 49.2873C42.023 49.2873 43.0894 48.2209 43.0894 46.9099V37.5051C43.0894 37.052 42.7222 36.6848 42.2691 36.6848C41.8159 36.6848 41.4487 37.052 41.4487 37.5051V46.9099C41.4487 47.2084 41.2614 47.4968 40.9563 47.604C40.5237 47.2459 25.2599 34.611 25.0952 34.4747C25.5782 34.1154 31.6479 29.6013 31.8709 29.4355H41.4487V33.6767C41.4489 34.1298 41.8161 34.497 42.2692 34.497C42.7223 34.497 43.0895 34.1298 43.0895 33.6767V29.4354H54.8289C55.7424 29.4354 56.3043 28.4305 55.8248 27.6523ZM2.13314 47.604C1.82197 47.4927 1.64073 47.2038 1.64073 46.9099L1.64084 22.3126C2.31394 22.8132 17.4484 34.0687 17.9944 34.4748L2.13314 47.604ZM38.4346 47.6465H4.65489C5.19608 47.1985 18.251 36.3922 19.3497 35.4828L20.3138 36.1997C21.0512 36.7482 22.0407 36.7466 22.7756 36.1998L23.7397 35.4828C25.0834 36.5948 38.135 47.3985 38.4346 47.6465ZM30.553 27.7948C30.9297 27.1835 41.8246 9.50194 42.2692 8.78029L53.9854 27.7948C53.5066 27.7948 31.0978 27.7948 30.553 27.7948Z" fill="white"/>
</svg>

<svg width="56" height="56" fill="none" xmlns="http://www.w3.org/2000/svg"><path d="M42.279 22.343c-1.262 0-2.25.988-2.25 2.249 0 1.24 1.01 2.25 2.25 2.25 1.21 0 2.23-1.03 2.23-2.25s-1.02-2.25-2.23-2.25zm0 2.858a.61.61 0 01-.609-.609c0-.347.262-.608.609-.608.314 0 .59.284.59.608 0 .313-.287.609-.59.609zm-.021-12.038c-1.218 0-2.25.722-2.199 1.877.08 1.787.217 3.825.217 5.34 0 .81.613 1.629 1.982 1.629.952 0 1.963-.572 1.963-1.63 0-1.513.137-3.544.217-5.338.052-1.157-1.001-1.878-2.18-1.878zm.54 1.806c-.078 1.759-.212 3.772-.217 5.327a.77.77 0 01-.323.072c-.17 0-.282-.026-.342-.048-.003-1.551-.138-3.56-.218-5.352l.001-.01c.08-.075.268-.154.56-.154.278 0 .462.083.54.159v.006z" fill="#fff"/><path d="M55.825 27.652L43.265 7.27a1.17 1.17 0 00-1.992 0L34.291 18.6H23.46a.82.82 0 100 1.64h9.821l-4.566 7.411a1.17 1.17 0 00.535 1.689l-7.452 5.542a.424.424 0 01-.504 0L1.78 20.371a.495.495 0 01.328-.13h17.523a.82.82 0 100-1.64H2.108C.957 18.6.011 19.523 0 20.648V46.91a2.38 2.38 0 002.377 2.377h38.335a2.38 2.38 0 002.377-2.377v-9.405a.82.82 0 10-1.64 0v9.405a.739.739 0 01-.493.694l-15.86-13.13 6.775-5.038h9.578v4.24a.82.82 0 001.64 0v-4.24h11.74a1.17 1.17 0 00.996-1.784zM2.133 47.604a.739.739 0 01-.492-.694V22.313l16.353 12.162-15.86 13.129zm36.302.043H4.655L19.35 35.483l.964.717a2.05 2.05 0 002.462 0l.964-.717 14.695 12.164zm-7.882-19.852L42.269 8.78l11.716 19.015H30.553z" fill="#fff"/></svg>
